svg/shutdown.svg

<?xml version="1.0" encoding="UTF-8"?>
<svg xmlns="http://www.w3.org/2000/svg" xmlns:xlink="http://www.w3.org/1999/xlink" width="32" height="32" viewBox="0 0 32 32">
<path fill-rule="nonzero" fill="rgb(0%, 0%, 0%)" fill-opacity="1" d="M 16 1.28125 C 7.882812 1.28125 1.28125 7.882812 1.28125 16 C 1.28125 24.117188 7.882812 30.71875 16 30.71875 C 24.117188 30.71875 30.71875 24.117188 30.71875 16 C 30.71875 7.882812 24.117188 1.28125 16 1.28125 M 15.359375 3.199219 C 15.359375 2.84375 15.644531 2.558594 16 2.558594 C 16.355469 2.558594 16.640625 2.84375 16.640625 3.199219 L 16.640625 17.28125 C 16.640625 17.636719 16.355469 17.921875 16 17.921875 C 15.832031 17.921875 15.667969 17.855469 15.546875 17.734375 C 15.425781 17.613281 15.359375 17.453125 15.359375 17.28125 Z M 16 29.472656 C 8.589844 29.472656 2.558594 23.445312 2.558594 16.03125 C 2.558594 10.257812 6.246094 5.128906 11.722656 3.292969 C 11.882812 3.238281 12.058594 3.25 12.210938 3.324219 C 12.363281 3.402344 12.480469 3.535156 12.535156 3.695312 C 12.589844 3.855469 12.578125 4.03125 12.5 4.183594 C 12.425781 4.335938 12.289062 4.453125 12.128906 4.503906 C 7.175781 6.164062 3.835938 10.804688 3.839844 16.03125 C 3.839844 22.738281 9.296875 28.191406 16 28.191406 C 22.703125 28.191406 28.160156 22.738281 28.160156 16.03125 C 28.160156 10.800781 24.828125 6.171875 19.871094 4.503906 C 19.535156 4.390625 19.355469 4.03125 19.46875 3.695312 C 19.582031 3.359375 19.941406 3.179688 20.277344 3.292969 C 25.753906 5.128906 29.441406 10.257812 29.441406 16.03125 C 29.441406 23.445312 23.410156 29.472656 16 29.472656 M 16 29.472656 "/>
</svg>

<svg role="img" viewBox="0 0 32 32" height="32" width="32" xmlns="http://www.w3.org/2000/svg"><path d="M16 1.281C7.883 1.281 1.281 7.883 1.281 16c0 8.117 6.602 14.719 14.719 14.719 8.117 0 14.719-6.602 14.719-14.719 0-8.117-6.602-14.719-14.719-14.719M15.36 3.2c0-.355.285-.64.64-.64.355 0 .64.285.64.64v14.082c0 .356-.285.64-.64.64a.639.639 0 0 1-.64-.64ZM16 29.473c-7.41 0-13.441-6.028-13.441-13.442a13.429 13.429 0 0 1 9.164-12.738.64.64 0 0 1 .812.402.635.635 0 0 1-.406.809 12.152 12.152 0 0 0-8.29 11.527c0 6.707 5.458 12.16 12.161 12.16 6.703 0 12.16-5.453 12.16-12.16 0-5.23-3.332-9.86-8.289-11.527a.638.638 0 1 1 .406-1.211 13.429 13.429 0 0 1 9.164 12.738c0 7.414-6.03 13.442-13.441 13.442m0 0"/></svg>
